packages/icons/src/font-bold.svg

<svg width="15" height="15" viewBox="0 0 15 15" fill="none" xmlns="http://www.w3.org/2000/svg">
  <path
    d="M5.10505 12C4.70805 12 4.4236 11.912 4.25171 11.736C4.0839 11.5559 4 11.2715 4 10.8827V4.11733C4 3.72033 4.08595 3.43588 4.25784 3.26398C4.43383 3.08799 4.71623 3 5.10505 3C6.42741 3 8.25591 3 9.02852 3C10.1373 3 11.0539 3.98153 11.0539 5.1846C11.0539 6.08501 10.6037 6.81855 9.70327 7.23602C10.8657 7.44851 11.5176 8.62787 11.5176 9.48128C11.5176 10.5125 10.9902 12 9.27734 12C8.77742 12 6.42626 12 5.10505 12ZM8.37891 8.00341H5.8V10.631H8.37891C8.9 10.631 9.6296 10.1211 9.6296 9.29877C9.6296 8.47643 8.9 8.00341 8.37891 8.00341ZM5.8 4.36903V6.69577H8.17969C8.53906 6.69577 9.27734 6.35939 9.27734 5.50002C9.27734 4.64064 8.48047 4.36903 8.17969 4.36903H5.8Z"
    fill="currentColor"
  />
</svg>

<svg xmlns="http://www.w3.org/2000/svg" width="15" height="15" fill="none"><path fill="currentColor" d="M5.105 12q-.595 0-.853-.264Q4 11.466 4 10.883V4.117q0-.595.258-.853Q4.522 3 5.105 3H9.03c1.108 0 2.025.982 2.025 2.185 0 .9-.45 1.634-1.35 2.051 1.162.213 1.814 1.392 1.814 2.245 0 1.031-.528 2.519-2.24 2.519zm3.274-3.997H5.8v2.628h2.579c.521 0 1.25-.51 1.25-1.332S8.9 8.003 8.38 8.003M5.8 4.37v2.327h2.38c.36 0 1.097-.337 1.097-1.196 0-.86-.797-1.131-1.097-1.131z"/></svg>
